X:86
T:Pauls Wharfe
R:Jig
M:6/8
L:1/8
Q:100
K:DMix
fd2 eBc|d>AF E2e|fd^c/2d/2 eB^c|d>FE D3||
FAF GB2|AdB ^ce2|fed eBc|d>FE D3||

